X: 373
T: Bir Gönülde İki Sevdâ Olamaz
C: Mazhar Bey
O: Turkey
F: http://compmusic.upf.edu/node/140
N: mahur--sarki--aksak--bir_gonulde--mazhar_bey
N: makam= mahur
N: form= sarki
N: usul= aksak = 9/8
M: 9/8
L: 1/16
K: C ^9/8f   
Q: 1/4=126
%%MIDI tuningsystem comma53
g3f e2f2 g4 a4 g2 | ba g2z2 d'c'c'b baa2 b2ag  | 
w:  ARANAĞME  |   | 
z2c'b a2g2 f3e e2f2 ed | fe d2z2 aggf fee2 f2ed  | 
w:   |   | 
z2ed c2d2 e2a2 g2=f2 e2 | d3cc3BBc BAA4A2  | \
w:   |   | 
FGA2 FGA2 A4 GFE2 F2 | 
w:   | 
G2 g4 fedc BAG4z2  | g3f e2f2 g4 a4 g2 | \
w:   |  ARANAĞME  | 
ba g2z2 d'c'c'b baa2 b2ag  | 
w:   | 
z2c'b a2g2 f3e e2f2 ed | fe d2z2 aggf fee2 f2ed  | 
w:   |   | 
z2ed c2d2 e2a2 g2=f2 e2 | d3cc3BBc BAA4A2  | \
w:   |   | 
FGA2 FGA2 A4 GFE2 F2 | 
w:   | 
G2 g4 fedc BAG4z2  | g3f e2f2 g4 g4 a2 | \
w:   |  Ah  *  bir  gö nül de   | 
g4g2 a2a4g2 f2e2  | 
w:  *  i ki  sev dâ   | 
e3d e2f2 g4 z4 z2 | g3fe2 f2g4c'2 b2a2  | \
w:  *  *  o la maz   |  ah  *  o la maz  ah   | 
g3f e2f2 g4 gagf ef | 
w:  *  *  o la maz   SAZ  | 
g3fe2 f2g4g4a2  | g4 g2a2 a4 g2f2 e2 | \
w:  Ah  *  bir  gö nül de   |  *  i ki  sev dâ   | 
e3de2 f2g4z4z2  | 
w:  *  *  o la maz   | 
g3f e2f2 g4 c'2b2 a2 | g3fe2 f2g4ga gfef  | \
w:  ah  *  o la maz  ah   |  *  *  o la maz   SAZ  | 
g4 g2a2 a4 a2f2 e2 | 
w:  *  Bi ri  Şî rin   | 
e3dd2 {e}dcc2 {d}cBAB c2BA  | A4 G2A2 A4 DEFG A2 | 
w:  *  *  bi *  ri  *  Ley *  lâ   |  *  o la maz  SAZ  | 
A3GF2 G2A4c2 B2A2  | G3F E2F2 G4 gagf ef | \
w:  ah  *  o la maz  ah   |  *  *  o la maz   SAZ  | 
g4g2 a2a4a2 f2e2  | 
w:  *  Bi ri  Şî rin   | 
e3d d2{e}dc c2{d}cB ABc2 BA | A4G2 A2A4DE FGA2  | 
w:  *  *  bi *  ri  *  Ley *  lâ   |  *  o la maz  SAZ  | 
A3G F2G2 A4 c2B2 A2 | G3FE2 F2G4b4^ac'  | \
w:  ah  *  o la maz  ah   |  *  *  o la maz   SAZ  | 
b4 g2b2 b4 b4 ^ac' | 
w:  *  Böy le  Mec nûn   | 
b4b2 c'2b2 ^a2g4gf  | f4 g2^a2 b4 z4 z2 | \
w:  *  dil_ i  şey *  dâ   |  *  o la maz   | 
b3^ag2 a2b4c'2 b2a2  | 
w:  ah  *  o la maz  ah   | 
g3f g2^a2 b4 bc'ba ga | b4g2 b2b4b4^ac'  | \
w:  *  *  o la maz   SAZ  |  *  Böy le  Mec nûn   | 
b4 b2c'2 b2^a2 g4 gf | 
w:  *  dil_ i  şey *  dâ   | 
f4g2 ^a2b4z4z2  | b3^a g2a2 b4 c'2b2 a2 | \
w:  *  o la maz   |  ah  *  o la maz  ah   | 
g3fe2 f2g4ga gfef  | 
w:  *  *  o la maz   SAZ  | 
g4 g2a2 a4 a2f2 e2 | e3dd2 {e}dcc2 {d}cBAB c2BA  | \
w:  *  Bi ri  Şî rin   |  *  *  bi *  ri  *  Ley *  lâ   | 
A4 G2A2 A4 DEFG A2 | 
w:  *  o la maz  SAZ  | 
A3GF2 G2A4c2 B2A2  | G3F E2F2 G4 gagf ef | \
w:  ah  *  o la maz  ah   |  *  *  o la maz   SAZ  | 
g4g2 a2a4a2 f2e2  | 
w:  *  Bi ri  Şî rin   | 
e3d d2{e}dc c2{d}cB ABc2 BA | A4G2 A2A4DE FGA2  | 
w:  *  *  bi *  ri  *  Ley *  lâ   |  *  o la maz  SAZ  | 
A3G F2G2 A4 c2B2 A2 | G3FE2 F2G4|
w:  ah  *  o la maz  ah   |  *  *  o la maz    | 


